X:1
T:Tamquam ad latronem
T:Victoria
T:Tamquam ad latronem
T:Copyright © 2015 by CPDL.  This edition can be fully distributed, duplicated, performed, and recorded 
T:Copyright © 2015 by CPDL.  This edition can be fully distributed, duplicated, performed, and recorded 
T:Copyright © 2015 by CPDL.  This edition can be fully distributed, duplicated, performed, and recorded 
T:Copyright © 2015 by CPDL.  This edition can be fully distributed, duplicated, performed, and recorded 
T:Copyright © 2015 by CPDL.  This edition can be fully distributed, duplicated, performed, and recorded 
T:Copyright © 2015 by CPDL.  This edition can be fully distributed, duplicated, performed, and recorded 
C:Victoria
Z:Copyright © 2015 by CPDL.  This edition can be fully distributed, duplicated, performed, and recorded
%%score [ 1 2 3 4 ]
L:1/8
Q:1/2=88
M:4/2
K:D
V:1 treble nm="Soprano" snm="S."
V:2 treble nm="Alto" snm="A."
V:3 treble-8 transpose=-12 nm="Tenor" snm="T."
V:4 bass nm="Bass" snm="B."
V:1
"^You come as against a robber with swords and clubs to apprehend me:R: I was daily with you in the temple teachingand you did not arrest me; and behold you lead meto be scourged and crucified.Vs: They laid hands on Jesus and held him; He said to them:" z16 | %1
w: |
 z16 | z16 | z16 | z8 z4 E4 | B6 B2 B4 A4 | B4 G4 F4 B,4 | F6 F2 F4 E4 | (F6 E2 D4) E4 | F8 z8 | %10
w: |||cum|gla- di- is et|fu- sti- bus, cum|gla- di- is et|fu- * * sti-|bus|
 z8 z4 G4- | G4 F4 (E2 F2 G2 E2 | F4) E8 ^D4 | E16 ||S z8 B8 | d6 d2 c4 A4 | B4 c4 d8 | c8 B8 | %18
w: com-|* pre- hen- * * *|* de- re|me:|Quo-|ti- di- e a-|pud vos e-|ram in|
 A4 G4 A8 | G8 z8 | z16 | z16 | z4 B4 ^A8 | B16- | B8 z4 B4- | B4 A4 G4 F4 | (G2 A2 B8) A4 | B16 | %28
w: tem- plo do-|cens,|||et ec-|ce|_ fla-|* gel- la- tum|du- * * ci-|tis|
 z16 | z8 e8- | e4 d4 =c4 B4 | (A12 G4 | F8) E4 e4- | e4 d4 =c4 B4 | A6 G2 F4 E4 | ^D4 E8 D4 | %36
w: |ad|_ cru- ci- fi-|gen- *|* dum, ad|_ cru- ci- fi-|gen- * * *||
 E16!fine! |] z8 B8 | E4 B8 A4 | B4 c4 d8 | B4 c4 d4 c2 B2 | A4 B6 A2 F4 | G8 F8 | z4 F4 G4 A4 | %44
w: dum.|Cum-|que in- ie-|ces- sent ma-|nus in Je- * *||* sum,|et te- nu-|
 B4 G4 (B8 | A8) G4 E4 | F4 ^G4 A6 B2 | =c4 B8 A4 | B16!D.S.! |] %49
w: is- sent e-|* um; di-|xit ad e- *||os:|
V:2
 z8 E8 | A,4 E8 D4 | C8 B,4 E4 | (D6 CB, C8) | B,4 F4 G6 G2 | G4 F4 G4 E4 | F4 B,4 D6 D2 | %7
w: Tam-|quam ad la-|tro- nem e-|xi- * * *|stis cum gla- di-|is et fu- sti-|bus, cum gla- di-|
 D4 C4 D4 B,4 | C4 F8 E4 | D4 C4 (B,2 C2 D2 B,2 | C8) B,4 B,4- | B,4 B,4 =C8- | C4 =C4 B,8 | %13
w: is et fu- sti-|bus com- pre-|hen- de- re _ _ _|_ me, com-|* pre- hen-|* de- re|
 B,16 || E8 G6 G2 | F4 D4 E4 F4 | E8 D4 F4- | F4 E8 D4- | D4 (E8 ^D4) | E8 z4 B,4 | =D12 C4 | %21
w: me:|Quo- ti- di-|e a- pud vos|e- ram in|_ tem- plo|_ do- *|cens, et|non me|
 D4 D4 C8 | B,4 F4 F8 | F4 F4 G8 | F4 F8 F4 | E12 ^D4 | E12 E4 | ^D4 F8 E4 | =D4 C4 (B,4 A,4 | %29
w: te- nu- i-|stis: et ec-|ce, et ec-|ce fla- gel-|la- tum|du- ci-|tis ad cru-|ci- fi- gen- *|
 G,4 F,4 E,8) | B,8 z4 E4- | E4 D4 =C4 B,4 | (A,6 B,2 =C4 B,4) | A,8 z8 | E6 D2 =C4 C4 | B,16 | %36
w: |dum, ad|_ cru- ci- fi-|gen- * * *|dum,|ad cru- ci- fi-|gen-|
 B,16 |] E8 B,4 E4- | E4 D4 E4 F4 | G4 E4 F4 G4- | G4 F2 E2 D4 E4 | F2 D2 G6 F2 F4- | F4 E4 F8 | %43
w: dum.|Cum- que in-|* ie- ces- sent|ma- nus in Je-|||* * sum,|
 z4 B,4 B,4 C4 | D4 B,4 (D4 E4-) | (E4 ^D4) E8 | z4 D4 E4 F4 | (G6 F2 E8) | F16 |] %49
w: et te- nu-|is- sent e- *|* * um;|di- xit ad|e- * *|os:|
V:3
 B8 E4 A4- | A4 G4 F8 | E4 A4 G2 F2 E2 F2 | G2 A2 B8 ^A4 | B16 | z16 | z16 | z4 F4 B6 B2 | %8
w: Tam- quam ad|_ la- tro-|nem e- xi- * * *||stis|||cum gla- di-|
 B4 ^A4 B4 G4 | F8 z4 B4- | B4 =A4 G8 | (E4 F4 G8 | A8) F8 | E16 || z8 E8 | B6 B2 A4 F4 | %16
w: is et fu- sti-|bus com-|* pre- hen-|de- * *|* re|me:|Quo-|ti- di- e a-|
 G4 A4 B8 | A8 G8 | F4 E4 F8 | E16 | z16 | z16 | z4 B4 c8 | ^d4 B4 e8 | B4 =d8 d4 | %25
w: pud vos e-|ram in|tem- plo do-|cens,|||et ec-|ce, et ec-|ce fla- gel-|
 (G4 A4) B4 B4- | (B2 A2 G2 F2 E4) E4 | F8 z8 | z16 | B12 A4 | G4 F4 (E2 F2 G2 E2 | F8) E8 | z16 | %33
w: la- * tum du-|* * * * * ci-|tis||ad cru-|ci- fi- gen- * * *|* dum,||
 e12 d4 | =c4 B4 A8- | (A4 G4 F8) | E16 |] z16 | z16 | z16 | z16 | z8 B8 | B4 c4 d4 B4 | %43
w: ad cru-|ci- fi- gen-||dum.|||||et|te- nu- is- sent|
 d6 c2 B4 A4 | G12 F2 E2 | F8 E8 | z4 B4 ^c4 d4 | (e6 d2 =c8) | B16 |] %49
w: e- * * *||* um;|di- xit ad|e- * *|os:|
V:4
 z16 | z16 | z16 | z16 | z4 B,,4 E,6 E,2 | E,4 ^D,4 E,4 =C,4 | B,,4 E,4 B,6 B,2 | %7
w: ||||cum gla- di-|is et fu- sti-|bus, cum gla- di-|
 B,4 ^A,4 B,4 G,4 | F,8 z4 B,4- | B,4 =A,4 G,8 | E,4 F,4 B,,4 E,4- | E,4 D,4 =C,8 | A,,8 B,,8 | %13
w: is et fu- sti-|bus com-|* pre- hen-|de- re me, com-|* pre- hen-|de- re|
 E,16 || z16 | z16 | z16 | z16 | z16 | z4 E,4 G,8- | G,4 F,4 G,4 A,4 | (B,12 ^A,4) | B,4 B,,4 F,8 | %23
w: me:||||||et non|_ me te- nu-|i- *|stis: et ec-|
 B,,8 z8 | z4 B,,8 B,,4 | =C,8 B,,8 | (E,6 D,2 =C,4) C,4 | B,,8 B,8- | B,4 A,4 G,4 F,4 | %29
w: ce|fla- gel-|la- tum|du- * * ci-|tis ad|_ cru- ci- fi-|
 (E,4 D,4 =C,8) | B,,8 z8 | z8 z4 E,4- | E,4 ^D,4 E,8 | A,,16- | A,,16 | B,,16 | E,16 |] z16 | %38
w: gen- * *|dum,|ad|_ cru- ci-|fi-||gen-|dum.||
 z16 | z16 | z16 | z16 | z16 | z16 | z16 | z16 | z16 | z16 | z16 |] %49
w: |||||||||||

